X: 0133
T: the Munro Rant - 8x32S
P: John Monro Sturrock
C: Muriel Hohnstone
B: Miss Milligan's Miscellany v.1 #0133
B: Originally Ours v.1 p.177 #MMM-0133
Z: 2020 John Chambers <jc:trillian.mit.edu>
M: 4/4
L: 1/8
R: strathspey
K: D
%
A |\
"D"f>e "G"(3dcB "F#/D"A<F D>F | "Em"E<e e>d "A7"c>B A>G |\
"D"F>E (3DEF "G"G<B, G>F | "G#/E7"E<B, e>d "A7"(3cBA "C#/A7"(3gfe |
"D"f>e "G"(3dcB "F#/D"A<F D>F | "G/Em"E<e e>f "A7"g2 f>g |\
"F#/D"(3agf "E/A7"(3gfe "D"(3fed "G"g<b | "A/D"a<a "A7"A>c "D"d2 dA ||
"D"F>E D<F "F#m"A2 A>F | "G/Em"E<e e>f "A7"g3 g |\
"D"f>e d<f "F#m"a2 f<a | "G"b>a "G#/E7"f<d "A"e2- eA |
"D"f>e d<f "F#m"a>f c<A | "G"B<B "A"c<c "Bm"d2 D2 |\
"Em"E>F G<B "G/Em"e>f g<b | "A/D"a<a "A7"A>c "D"d2 d :|
